X:1
T:Timmy Clifford's
R:jig
M:6/8
L:1/8
K:G
|:G,B,D ~E2D|DB,D ~G2G|G,B,D ~C2B|AGF GDB,|
|G,B,D ~E2D|DB,D GAB|~d2d ~B2B|1 AGF GDB,:|2 AGF GBd|]
|:~e2e ~d2d|BAG GBd|~e2e ~d2d|BAG ABd|
|~e2e ~d2d|BAG GAB|~c2c ~B2B|1 AGF GBd:|2 AGF GDB,|]